X: 06055
T: MICK'S REEL
C: Bob McQuillen 7 Aug 82
B: Bob's Note Book 6 #55
%R: reel
Z: 2021 John Chambers <jc:trillian.mit.edu>
M: C
L: 1/8
K: D
AB \
| dedB AFdB | AFEF DB,DB, | A,B,DE FDFA | Bdfe dBAB |\
| d2df edBA | d2fd efdB | e2fe dBAB | ABde fd :|
|: df \
| a2af eddf | afef dBBd | e2ef dBdB | ABde fddf |\
| afdf edBd | edfd edBA | dfaf edBd | AFAF ED :|
%%begintext align
%% It's 3 weeks since
%% Irish Music Week at Augusta, and I can still
%% hear that marvelous plink-a-plunk of Mick
%% Moloney's banjo - Try this one on it, Mick -
%% I sure hope you like it -
%%endtext

%%sep 1 1 500

%%sep 1 1 500

